src/4-icons/monitor.svg

<svg width="260" height="260" viewBox="0 0 260 260" fill="none" xmlns="http://www.w3.org/2000/svg">
<g opacity="0.9">
<path fill-rule="evenodd" clip-rule="evenodd" d="M10 24C4.47715 24 0 28.4772 0 34V184C0 189.523 4.47716 194 10 194H99V223H77C73.134 223 70 226.134 70 230C70 233.866 73.134 237 77 237H183C186.866 237 190 233.866 190 230C190 226.134 186.866 223 183 223H161V194H250C255.523 194 260 189.523 260 184V34C260 28.4772 255.523 24 250 24H10ZM147 223V194H113V223H147ZM19 180C16.2386 180 14 177.761 14 175V43C14 40.2386 16.2386 38 19 38H241C243.761 38 246 40.2386 246 43V175C246 177.761 243.761 180 241 180H19Z" fill="black"/>
</g>
</svg>

<svg width="260" height="260" viewBox="0 0 260 260" fill="none" xmlns="http://www.w3.org/2000/svg"><path fill-rule="evenodd" clip-rule="evenodd" d="M10 24C4.477 24 0 28.477 0 34v150c0 5.523 4.477 10 10 10h89v29H77a7 7 0 1 0 0 14h106a7 7 0 1 0 0-14h-22v-29h89c5.523 0 10-4.477 10-10V34c0-5.523-4.477-10-10-10H10Zm137 199v-29h-34v29h34ZM19 180a5 5 0 0 1-5-5V43a5 5 0 0 1 5-5h222a5 5 0 0 1 5 5v132a5 5 0 0 1-5 5H19Z" fill="#000" opacity=".9"/></svg>
